X:1
T:Rome
T:D Major         Hezekiah Moors, 1809
T:Transcribed from Province Harmony, 1809.
T:Isaac Watts, 1719 (Psalm 65, Part 3)                 86. 86. (C. M.)
%%score [ 1 2 3 4 ]
L:1/8
Q:1/4=120
M:2/2
K:D
V:1 treble nm="Tr." snm="Tr."
V:2 treble nm="C." snm="C."
V:3 treble-8 nm="T." snm="T."
V:4 bass nm="B." snm="B."
V:1
 F8 | F2 F2 F2 A2 | B2 B2 B2 c2 | d2 AG F2 B2 | A8- | A4 A4 | AG FG A2 A2 | A2 A2 A2 c2 | %8
 d2 AB A2 G2 | %9
"_1.  –pear. The  clouds,  like  ri –vers  raised on  high, Pour  out     at    thy    com   –   mand             Their  watery  blessings  from  the  sky,\n2.   sing.  The   lit   –   tle   hills,  on   eve  –  ry  side,  Re – joice    at    fal  –  ling      showers;          The meadows, dressed in all their pride,\n3.   hope. The various months thy goodness crowns;  How  bounteous  are    thy       ways!              The bleating flocks spread o'er the downs," F6 d2 |: %10
 AB AG F2 E2 | DE FG A2 d2 | d6 f2 | d4 (c2 B2) | c8 | z4 A4 | A2 A2 A2 d2 | cB A^G A2 z2 | z8 | %19
 z8 | %20
 z4 z2"_1.  To   cheer the thirsty  land,     To    cheer             the     thirsty      land. \n2.  Perfume the air with flowers,  Per – fume            the  air  with  flowers.\n3.  And shepherds shout thy praise, And  shep  –   herds  shout  thy praise." e2 | %21
 f3 f f2 e2 | d6 d2 | (B4 A2) B2 | A4 A4 |1 A6 d2 :|2 A8 |] %27
V:2
"_1. Good is the Lord, the heav'nly King, Who makes the earth his care;        Vi – sits  the  pastures  every spring,   And   bids the  grass ap –\n2. The sof–tened  rid–ges  of the field     Per –mit  the  corn  to  spring;        The  val – leys  rich  provision  yield, And  the  poor  laborers\n3. The barren clods, refreshed with rain,  Promise a   joy– ful    crop;      The parching grounds look green again, And  raise  the   reaper's" D8 | %1
 D2 D2 D2 FA | G2 G2 G2 FE | D2 E2 F2 ED | C8 | z4 D4 | D2 D2 D2 D2 | D2 E2 F2 EG | %8
 F2 FE D2 [CE]2 | [DF]6 z2 |: z8 | z4 z2 F2 | F6 F2 | F4 E4 | E8 | z4 F4 | F2 F2 F2 D2 | %17
 CD ED C2 z2 | z8 | %19
 z4 z2"_1.  To   cheer  the  thirsty   land, ________________  To    cheer             the     thirsty      land. \n2.  Per–fume the air with flowers, _______________  Per – fume           the  air  with  flowers.\n3.  And shepherds shout thy praise, _____________  And   shep   –    herds  shout  thy praise." A2 | %20
 A3 A A2 G2 | F8- | F6 F2 | (G4 F2) E2 | D4 [CE]4 |1 [DF]6 z2 :|2 [DF]8 |] %27
V:3
 D8 | A2 A2 A2 F2 | G2 G2 GB AG | F2 E2 F2 ^G2 | A8 | z4 A4 | AB AG F2 A2 | d2 ce d2 e2 | %8
 fd ag f2 e2 | d6 z2 |: z8 | %11
 z4 z2"_1.  Pour  out     at    thy    com   –   mand             Their  watery  blessings  from  the  sky,\n2.  Re – joice    at    fal  –  ling      showers;          The meadows, dressed in all their pride,\n3.  How  bounteous  are    thy       ways!              The bleating flocks spread o'er the downs," A2 | %12
 F6 D2 | B4 (A2 ^G2) | A8 | z4 A4 | d2 d2 d2 f2 | ed cB A2 z2 | %18
 z4 z2"_1.  To   cheer  the  thirsty   land, ______________________________   To    cheer             the     thirsty       land. \n2.  Per–fume the air with flowers, _____________________________   Per – fume            the  air  with  flowers.\n3.  And shepherds shout thy praise, ___________________________   And   shep   –    herds  shout  thy  praise." e2 | %19
 f3 f f2 e2 | d8- | d8- | d6 A2 | (B2 dB A2) G2 | F4 E4 |1 D6 z2 :|2 D8 |] %27
V:4
 D,8 | D,2 D,2 D,2 F,2 | E,2 E,2 E,2 A,2 | D,2 C,2 D,2 E,2 | A,,8- | A,,4 D,4 | D,2 D,2 D,2 F,2 | %7
 D,2 A,2 F,2 A,2 | D2 F,G, A,2 A,2 | D,6 z2 |: z8 | z4 z2 D,2 | D,6 D,2 | B,,4 E,4 | A,,8 | %15
 z4 D,4 | D,2 D,2 D,2 D,2 | E,2 E,2 C2"_1.  To\n2.  Per–\n3.  And" A,2 | %18
"_1.  cheer the thirsty   land, _____________________________________________  To    cheer             the     thirsty      land. \n2.  –fume the air with flowers, __________________________________________  Per – fume           the  air  with  flowers.\n3.  shepherds shout thy praise, __________________________________________  And   shep   –    herds  shout  thy praise." D3 D D2 A,2 | %19
 D,8- | D,8- | D,8- | %22
 D,6"_________________________________________________________________________\nEdited by B. C. Johnston, 2018.   Measure 18, Bass: third note changed from B to C." F,2 | %23
 (E,4 F,2) G,2 | A,4 A,,4 |1 D,6 z2 :|2 D,8 |] %27

